svg_80x80/visual-basic.svg

<svg viewBox="0 0 80 80" xmlns="http://www.w3.org/2000/svg">
<rect width="100%" height="100%" fill="white"/>
<path d="M40 73C58.2242 73 73 58.2242 73 40C73 21.7757 58.2242 7 40 7C21.7757 7 7 21.7757 7 40C7 58.2242 21.7757 73 40 73Z" fill="#2D4C91"/>
<path d="M63.0918 63.3721C57.1441 69.3197 48.9292 73 39.8599 73C21.713 72.9918 7 58.2788 7 40.132C7 31.0626 10.6803 22.8477 16.6279 16.9L63.1 63.3721H63.0918Z" fill="#425D9C"/>
<path d="M41.4592 26.1127L30.9767 54.5169H27.2571L17 26.1127H20.7196L28.6097 48.6558C28.8351 49.4448 29.0605 50.3465 29.1732 51.1355H29.286C29.3987 50.2338 29.6241 49.4448 29.9622 48.543L37.965 26L41.4592 26.1127ZM45.5169 54.5169V26.1127H53.6324C55.774 26 57.8029 26.6763 59.4936 27.9162C60.9589 29.0433 61.7479 30.8468 61.6352 32.6502C61.6352 34.1155 61.1844 35.5808 60.2826 36.8207C59.3809 38.0605 58.141 38.9622 56.6757 39.3004V39.4131C58.3665 39.5258 60.0572 40.3148 61.2971 41.5547C62.4242 42.9073 63.1005 44.598 62.9878 46.2887C63.1005 48.543 62.0861 50.6846 60.3953 52.1499C58.5919 53.7279 56.2249 54.5169 53.8579 54.4042H45.5169V54.5169ZM48.8984 29.156V38.286H52.2799C53.8579 38.3987 55.3232 37.8351 56.563 36.9334C57.5775 36.0317 58.2538 34.6791 58.141 33.2138C58.141 30.5086 56.3376 29.0433 52.7307 29.0433L48.8984 29.156ZM48.8984 41.2166V51.4736H53.407C54.985 51.5863 56.6757 51.0228 57.9156 50.1211C59.0428 49.2193 59.6063 47.754 59.4936 46.2887C59.4936 42.9073 57.2393 41.2166 52.618 41.2166H48.8984Z" fill="white"/>
</svg>

<svg xmlns="http://www.w3.org/2000/svg" viewBox="0 0 80 80">
  <rect width="100%" height="100%" fill="#fff"/>
  <path fill="#2D4C91" d="M40 73a33 33 0 1 0 0-66 33 33 0 0 0 0 66Z"/>
  <path fill="#425D9C" d="M63 63.4A32.8 32.8 0 0 1 7 40c0-9 3.7-17.3 9.6-23.2l46.5 46.5Z"/>
  <path fill="#fff" d="M41.5 26.1 31 54.5h-3.7L17 26.1h3.7l8 22.6.5 2.4c.2-.9.4-1.7.8-2.6L38 26l3.5.1Zm4 28.4V26.1h8.1a9 9 0 0 1 5.9 1.8c1.5 1.1 2.2 3 2.1 4.8a7 7 0 0 1-1.3 4.1 6.2 6.2 0 0 1-3.6 2.5v.1c1.7.1 3.4 1 4.6 2.2 1.1 1.3 1.8 3 1.7 4.7.1 2.2-1 4.4-2.6 5.8a9.3 9.3 0 0 1-6.5 2.3h-8.4v.1ZM49 29.2v9h3.4c1.6.2 3-.4 4.3-1.3 1-.9 1.7-2.2 1.5-3.7 0-2.7-1.8-4.2-5.4-4.2l-3.8.2Zm0 12v10.3h4.5c1.6 0 3.3-.5 4.5-1.4a4.5 4.5 0 0 0 1.6-3.8c0-3.4-2.3-5-6.9-5H49Z"/>
</svg>
